MonoIcons/scalable/status/view-wrapped-rtl-symbolic.svg

<?xml version="1.0" encoding="UTF-8"?>
<svg height="16px" viewBox="0 0 16 16" width="16px" xmlns="http://www.w3.org/2000/svg">
    <path d="m 9 0 c -2.753906 0 -5 2.246094 -5 5 v 0.585938 l -0.292969 -0.292969 c -0.1875 -0.1875 -0.441406 -0.292969 -0.707031 -0.292969 s -0.519531 0.105469 -0.707031 0.292969 c -0.390625 0.390625 -0.390625 1.023437 0 1.414062 l 2 2 c 0.390625 0.390625 1.023437 0.390625 1.414062 0 l 2 -2 c 0.390625 -0.390625 0.390625 -1.023437 0 -1.414062 s -1.023437 -0.390625 -1.414062 0 l -0.292969 0.292969 v -0.585938 c 0 -1.679688 1.320312 -3 3 -3 s 3 1.320312 3 3 v 6 c 0 1.679688 -1.320312 3 -3 3 s -3 -1.320312 -3 -3 c 0 -0.550781 -0.449219 -1 -1 -1 s -1 0.449219 -1 1 c 0 2.753906 2.246094 5 5 5 s 5 -2.246094 5 -5 v -6 c 0 -2.753906 -2.246094 -5 -5 -5 z m 0 0" fill="#2e3436"/>
</svg>

<svg width="16" height="16" viewBox="0 0 16 16" fill="none" xmlns="http://www.w3.org/2000/svg">
<g clip-path="url(#clip0_231_1392)">
<path d="M9 0C6.24609 0 4 2.24609 4 5V5.58594L3.70703 5.29297C3.51953 5.10547 3.26562 5 3 5C2.73437 5 2.48047 5.10547 2.29297 5.29297C1.90234 5.68359 1.90234 6.31641 2.29297 6.70703L4.29297 8.70703C4.68359 9.09766 5.31641 9.09766 5.70703 8.70703L7.70703 6.70703C8.09766 6.31641 8.09766 5.68359 7.70703 5.29297C7.31641 4.90234 6.68359 4.90234 6.29297 5.29297L6 5.58594V5C6 3.32031 7.32031 2 9 2C10.6797 2 12 3.32031 12 5V11C12 12.6797 10.6797 14 9 14C7.32031 14 6 12.6797 6 11C6 10.4492 5.55078 10 5 10C4.44922 10 4 10.4492 4 11C4 13.7539 6.24609 16 9 16C11.7539 16 14 13.7539 14 11V5C14 2.24609 11.7539 0 9 0Z" fill="#2E3436"/>
</g>
<defs>
<clipPath id="clip0_231_1392">
<rect width="16" height="16" fill="white"/>
</clipPath>
</defs>
</svg>
